christians-website/frontend/static/images/Pepis/Features/deliver.svg

<svg height="443" viewBox="0 0 783 443" width="783" xmlns="http://www.w3.org/2000/svg"><g fill="none"><path d="m783 0h-783v443h783z" fill="#fbfdfe"/><g transform="translate(0 105)"><path d="m438.045 88.79h-438.045v56.333333h438.045z" fill="#ff7000"/><path d="m783 88.79h-438.045v56.333333h438.045z" fill="#ff7000"/><path d="m623.007 132.426667v-30.333334c.02075-6.4481215-.798079-12.8716958-2.436-19.1099997-.8265-3.25-4.089-10.9633333-4.089-11.3966666-1.526265-3.1122798-3.30097-6.0974308-5.307-8.9266667-.3915-.39-8.961-12.61-8.961-12.61-.8265-.8233333-1.653-2.0366667-2.436-2.86-2.0445-2.0366667-4.089-4.0733333-6.525-6.11-.216219 0-.3915-.1746089-.3915-.39-3.506818-2.4519237-7.3633-4.3654732-11.4405-5.6766667-7.464755-2.2535895-15.103038-3.8913399-22.8375-4.8966666-7.702187-1.1556493-15.483666-1.7062349-23.2725-1.6466667h-294.5385c-8.525823.0555207-17.013009 1.1469152-25.2735 3.25l-33.843 8.9266667s-17.9655 30.3333333-18.7485 34.6666666c-1.349503 4.9298932-2.309437 9.9574803-2.871 15.0366667v53.083333c.362793 5.106901 1.326392 10.153689 2.871 15.036667 1.218 4.073333 18.7485 34.146667 18.7485 34.146667l33.4515 8.926666c8.260491 2.103085 16.747677 3.19448 25.2735 3.25h294.1035c7.788839.059747 15.570332-.490839 23.2725-1.646666.70493.067729 1.414556-.067636 2.0445-.39 7.160543-1.244395 14.247186-2.879072 21.228-4.896667 4.111197-1.226866 7.980767-3.14691 11.4405-5.676667.216219 0 .3915-.174609.3915-.39 2.463398-1.707648 4.661831-3.766257 6.525-6.11.8265-.823333 1.653-2.036666 2.436-2.86 0 0 8.961-12.176666 8.961-12.61 2.00603-2.829236 3.780735-5.814387 5.307-8.926666.344037-.978357.750877-1.933662 1.218-2.86 1.331544-2.752112 2.2967-5.665622 2.871-8.666667 2.011964-5.553478 2.970731-11.430978 2.8275-17.333333z" fill="#fff"/><path d="m386.4105 37.7433333-17.9655-5.2866666-3.045 32.5433333 13.05-6.11z" fill="#fff"/><path d="m213.846 174.286667c-15.501285-36.494867-15.501285-77.6884674 0-114.1833337v-.39c1.390346-2.9405235 4.498745-4.6801239 7.743-4.3333333 13.05 1.2133333 44.892 4.0733333 56.289 5.6766667 1.738647.1408086 3.328075 1.0333849 4.349089 2.4423218 1.021014 1.408937 1.371095 3.1927622.957911 4.8810115v.39c-5.299622 31.87846-5.299622 64.408206 0 96.286667v.39c.500533 3.466754-1.846287 6.70522-5.307 7.323333-11.4405 1.646667-43.239 4.333333-56.289 5.676667-3.23694.568766-6.441908-1.153134-7.743-4.16z" fill="#000"/><path d="m481.023 193.006667c1.218.823333.8265 3.25-.8265 3.25h-157.4265c-15.642072-.767305-31.194665-2.810816-46.5015-6.11-.767301-.101864-1.368081-.708209-1.460309-1.473835-.092229-.765625.347486-1.496351 1.068809-1.776165 8.178-4.073334 27.318-11.786667 58.725-11.786667h59.943c15.253779-.072174 30.459807 1.703069 45.2835 5.286667l25.6215 5.936666c5.495762 1.439127 10.744744 3.688418 15.573 6.673334z" fill="#000"/><path d="m386.4105 196.256667-17.9655 4.073333-3.2625-30.333333 13.2675 5.113333z" fill="#fff"/><path d="m510.429 181.22 3.2625-6.5c14.172997-33.047147 15.199372-70.226858 2.871-104l-6.1335-17.3333333c-1.384213-2.5156446-4.036697-4.0777713-6.9165-4.0733334-2.456955.1999669-4.929761.0687835-7.3515-.39l-57.942 14.2133334c-3.017686.8060294-4.83465 3.8676296-4.089 6.89 7.754095 30.9565323 7.754095 63.3368013 0 94.2933333-.65172 3.007889 1.129327 6.008969 4.089 6.89l57.942 14.213333h7.3515c2.93642.082289 5.646428-1.564652 6.9165-4.203333z" fill="#000"/><path d="m162.864 158.86c.3915.823333.3915 2.036667.8265 2.86.903072 2.954492 1.992746 5.849154 3.2625 8.666667 3.621959 8.423322 8.734805 16.129257 15.0945 22.75h13.7025c1.038885.010656 1.974276-.625019 2.343326-1.592482s.093491-2.061535-.690326-2.740852c-10.875-9.62-34.539-29.943333-34.539-29.943333z" fill="#ffafa1"/><path d="m162.864 75.14c.3915-.8233333.3915-2.0366667.8265-2.86.903072-2.9544917 1.992746-5.8491539 3.2625-8.6666667 3.621959-8.4233222 8.734805-16.1292578 15.0945-22.75h13.7025c1.038885-.0106564 1.974276.6250182 2.343326 1.5924812s.093491 2.0615357-.690326 2.7408522c-10.875 9.23-34.539 29.9433333-34.539 29.9433333z" fill="#ffafa1"/><path d="m469.8 35.75-15.921-31.67666667c-.355442-.81095566-.272443-1.74632195.220291-2.48259097.492734-.73626901 1.327547-1.17234624 2.215709-1.15740903h3.654c5.146843-.09945454 9.962262 2.52156984 12.6585 6.89l8.178 12.17666667c1.537771 2.2851808 2.383378 4.9627049 2.436 7.7133333v10.14z" fill="#fff"/><path d="m470.0175 198.25-15.921 31.676667c-.355442.810955-.272443 1.746322.220291 2.482591s1.327547 1.172346 2.215709 1.157409h3.654c5.146843.099454 9.962262-2.52157 12.6585-6.89l8.178-12.176667c1.537771-2.285181 2.383378-4.962705 2.436-7.713333v-10.14z" fill="#fff"/><path d="m617.265 159.683333-11.832.823334c-3.480893.565172-6.60262 2.462129-8.7 5.286666l-17.4 24.786667c-1.510208 1.891999-3.468257 3.380966-5.6985 4.333333l-11.0055 3.64c-1.438184.435951-2.424993 1.752506-2.436 3.25v1.863334c7.160491-1.24465 14.24712-2.879324 21.228-4.896667 4.111514-1.226067 7.981217-3.146176 11.4405-5.676667.103832 0 .203412-.041089.276832-.114228.073421-.073139.114668-.172337.114668-.275772 2.463398-1.707648 4.661831-3.766257 6.525-6.11.8265-.823333 1.653-2.036666 2.436-2.86 0 0 8.961-12.176666 8.961-12.61 2.00603-2.829236 3.780735-5.814387 5.307-8.926666-.435.303333 0-.91.783-2.513334z" fill="#ffafa1"/><path d="m617.265 74.3166667-11.832-.65c-3.480893-.565172-6.60262-2.4621296-8.7-5.2866667l-17.4-24.7866667c-1.510208-1.8919985-3.468257-3.3809656-5.6985-4.3333333l-11.0055-3.64c-1.438184-.4359508-2.424993-1.7525062-2.436-3.25v-2.0366667c7.160491 1.2446498 14.24712 2.8793237 21.228 4.8966667 4.111514 1.2260666 7.981217 3.1461761 11.4405 5.6766667.216219 0 .3915.1746089.3915.39 2.463398 1.7076479 4.661831 3.7662573 6.525 6.11.8265.8233333 1.653 2.0366666 2.436 2.86 0 0 8.961 12.1766666 8.961 12.61 2.00603 2.8292359 3.780735 5.8143869 5.307 8.9266666-.435-.3033333 0 .91.783 2.5133334z" fill="#ffafa1"/><path d="m481.023 40.6033333c1.218-.8233333.8265-3.25-.8265-3.25h-157.4265c-15.638465.7245037-31.191021 2.7245313-46.5015 5.98-.767301.1018641-1.368081.7082087-1.460309 1.4738343-.092229.7656257.347486 1.4963512 1.068809 1.7761657 8.178 4.0733334 27.318 11.7866667 58.725 11.7866667h59.943c15.253755.0717452 30.459731-1.7034914 45.2835-5.2866667l25.6215-5.98c5.5448-1.2046265 10.822295-3.407395 15.573-6.5z" fill="#000"/><path d="m386.4105 37.7433333-17.9655-4.3333333-3.045 30.7666667 13.05-5.2866667z" fill="#fff"/></g></g></svg>

<?xml version="1.0" encoding="UTF-8"?>
<svg width="783px" height="443px" viewBox="0 0 783 443" version="1.1" xmlns="http://www.w3.org/2000/svg" xmlns:xlink="http://www.w3.org/1999/xlink">
    <!-- Generator: Sketch 53.2 (72643) - https://sketchapp.com -->
    <title>deliver</title>
    <desc>Created with Sketch.</desc>
    <g id="Page-1" stroke="none" stroke-width="1" fill="none" fill-rule="evenodd">
        <g id="deliver" fill-rule="nonzero">
            <g id="Global-Rider-Meet-driver">
                <g id="BG" fill="#FBFDFE">
                    <polygon id="Path" points="783 1.13686838e-13 5.68434189e-14 1.13686838e-13 5.68434189e-14 443 783 443"></polygon>
                </g>
                <g id="Layer_1" transform="translate(0.000000, 105.000000)">
                    <polygon id="Path" fill="#FF7000" points="438.045 88.79 0 88.79 0 145.123333 438.045 145.123333"></polygon>
                    <polygon id="Path" fill="#FF7000" points="783 88.79 344.955 88.79 344.955 145.123333 783 145.123333"></polygon>
                    <path d="M623.007,132.426667 L623.007,102.093333 C623.02775,95.6452115 622.208921,89.2216372 620.571,82.9833333 C619.7445,79.7333333 616.482,72.02 616.482,71.5866667 C614.955735,68.4743869 613.18103,65.4892359 611.175,62.66 C610.7835,62.27 602.214,50.05 602.214,50.05 C601.3875,49.2266667 600.561,48.0133333 599.778,47.19 C597.7335,45.1533333 595.689,43.1166667 593.253,41.08 C593.036781,41.08 592.8615,40.9053911 592.8615,40.69 C589.354682,38.2380763 585.4982,36.3245268 581.421,35.0133333 C573.956245,32.7597438 566.317962,31.1219934 558.5835,30.1166667 C550.881313,28.9610174 543.099834,28.4104318 535.311,28.47 L240.7725,28.47 C232.246677,28.5255207 223.759491,29.6169152 215.499,31.72 L181.656,40.6466667 C181.656,40.6466667 163.6905,70.98 162.9075,75.3133333 C161.557997,80.2432265 160.598063,85.2708136 160.0365,90.35 L160.0365,143.433333 C160.399293,148.540234 161.362892,153.587022 162.9075,158.47 C164.1255,162.543333 181.656,192.616667 181.656,192.616667 L215.1075,201.543333 C223.367991,203.646418 231.855177,204.737813 240.381,204.793333 L534.4845,204.793333 C542.273339,204.85308 550.054832,204.302494 557.757,203.146667 C558.46193,203.214396 559.171556,203.079031 559.8015,202.756667 C566.962043,201.512272 574.048686,199.877595 581.0295,197.86 C585.140697,196.633134 589.010267,194.71309 592.47,192.183333 C592.686219,192.183333 592.8615,192.008724 592.8615,191.793333 C595.324898,190.085685 597.523331,188.027076 599.3865,185.683333 C600.213,184.86 601.0395,183.646667 601.8225,182.823333 C601.8225,182.823333 610.7835,170.646667 610.7835,170.213333 C612.78953,167.384097 614.564235,164.398946 616.0905,161.286667 C616.434537,160.30831 616.841377,159.353005 617.3085,158.426667 C618.640044,155.674555 619.6052,152.761045 620.1795,149.76 C622.191464,144.206522 623.150231,138.329022 623.007,132.426667 Z" id="Path" fill="#FFFFFF"></path>
                    <polygon id="Path" fill="#FFFFFF" points="386.4105 37.7433333 368.445 32.4566667 365.4 65 378.45 58.89"></polygon>
                    <path d="M213.846,174.286667 C198.344715,137.7918 198.344715,96.5981996 213.846,60.1033333 L213.846,59.7133333 C215.236346,56.7728098 218.344745,55.0332094 221.589,55.38 C234.639,56.5933333 266.481,59.4533333 277.878,61.0566667 C279.616647,61.1974753 281.206075,62.0900516 282.227089,63.4989885 C283.248103,64.9079255 283.598184,66.6917507 283.185,68.38 L283.185,68.77 C277.885378,100.64846 277.885378,133.178206 283.185,165.056667 L283.185,165.446667 C283.685533,168.913421 281.338713,172.151887 277.878,172.77 C266.4375,174.416667 234.639,177.103333 221.589,178.446667 C218.35206,179.015433 215.147092,177.293533 213.846,174.286667 L213.846,174.286667 Z" id="Path" fill="#000000"></path>
                    <path d="M481.023,193.006667 C482.241,193.83 481.8495,196.256667 480.1965,196.256667 L322.77,196.256667 C307.127928,195.489362 291.575335,193.445851 276.2685,190.146667 C275.501199,190.044803 274.900419,189.438458 274.808191,188.672832 C274.715962,187.907207 275.155677,187.176481 275.877,186.896667 C284.055,182.823333 303.195,175.11 334.602,175.11 L394.545,175.11 C409.798779,175.037826 425.004807,176.813069 439.8285,180.396667 L465.45,186.333333 C470.945762,187.77246 476.194744,190.021751 481.023,193.006667 Z" id="Path" fill="#000000"></path>
                    <polygon id="Path" fill="#FFFFFF" points="386.4105 196.256667 368.445 200.33 365.1825 169.996667 378.45 175.11"></polygon>
                    <path d="M510.429,181.22 L513.6915,174.72 C527.864497,141.672853 528.890872,104.493142 516.5625,70.72 L510.429,53.3866667 C509.044787,50.8710221 506.392303,49.3088954 503.5125,49.3133333 C501.055545,49.5133002 498.582739,49.3821168 496.161,48.9233333 L438.219,63.1366667 C435.201314,63.9426961 433.38435,67.0042963 434.13,70.0266667 C441.884095,100.983199 441.884095,133.363468 434.13,164.32 C433.47828,167.327889 435.259327,170.328969 438.219,171.21 L496.161,185.423333 L503.5125,185.423333 C506.44892,185.505622 509.158928,183.858681 510.429,181.22 L510.429,181.22 Z" id="Path" fill="#000000"></path>
                    <path d="M162.864,158.86 C163.2555,159.683333 163.2555,160.896667 163.6905,161.72 C164.593572,164.674492 165.683246,167.569154 166.953,170.386667 C170.574959,178.809989 175.687805,186.515924 182.0475,193.136667 L195.75,193.136667 C196.788885,193.147323 197.724276,192.511648 198.093326,191.544185 C198.462376,190.576722 198.186817,189.48265 197.403,188.803333 C186.528,179.183333 162.864,158.86 162.864,158.86 Z" id="Path" fill="#FFAFA1"></path>
                    <path d="M162.864,75.14 C163.2555,74.3166667 163.2555,73.1033333 163.6905,72.28 C164.593572,69.3255083 165.683246,66.4308461 166.953,63.6133333 C170.574959,55.1900111 175.687805,47.4840755 182.0475,40.8633333 L195.75,40.8633333 C196.788885,40.8526769 197.724276,41.4883515 198.093326,42.4558145 C198.462376,43.4232775 198.186817,44.5173502 197.403,45.1966667 C186.528,54.4266667 162.864,75.14 162.864,75.14 Z" id="Path" fill="#FFAFA1"></path>
                    <path d="M469.8,35.75 L453.879,4.07333333 C453.523558,3.26237767 453.606557,2.32701138 454.099291,1.59074236 C454.592025,0.854473352 455.426838,0.418396123 456.315,0.433333333 L459.969,0.433333333 C465.115843,0.333878786 469.931262,2.95490317 472.6275,7.32333333 L480.8055,19.5 C482.343271,21.7851808 483.188878,24.4627049 483.2415,27.2133333 L483.2415,37.3533333 L469.8,35.75 Z" id="Path" fill="#FFFFFF"></path>
                    <path d="M470.0175,198.25 L454.0965,229.926667 C453.741058,230.737622 453.824057,231.672989 454.316791,232.409258 C454.809525,233.145527 455.644338,233.581604 456.5325,233.566667 L460.1865,233.566667 C465.333343,233.666121 470.148762,231.045097 472.845,226.676667 L481.023,214.5 C482.560771,212.214819 483.406378,209.537295 483.459,206.786667 L483.459,196.646667 L470.0175,198.25 Z" id="Path" fill="#FFFFFF"></path>
                    <path d="M617.265,159.683333 L605.433,160.506667 C601.952107,161.071839 598.83038,162.968796 596.733,165.793333 L579.333,190.58 C577.822792,192.471999 575.864743,193.960966 573.6345,194.913333 L562.629,198.553333 C561.190816,198.989284 560.204007,200.305839 560.193,201.803333 L560.193,203.666667 C567.353491,202.422017 574.44012,200.787343 581.421,198.77 C585.532514,197.543933 589.402217,195.623824 592.8615,193.093333 C592.965332,193.093333 593.064912,193.052244 593.138332,192.979105 C593.211753,192.905966 593.253,192.806768 593.253,192.703333 C595.716398,190.995685 597.914831,188.937076 599.778,186.593333 C600.6045,185.77 601.431,184.556667 602.214,183.733333 C602.214,183.733333 611.175,171.556667 611.175,171.123333 C613.18103,168.294097 614.955735,165.308946 616.482,162.196667 C616.047,162.5 616.482,161.286667 617.265,159.683333 Z" id="Path" fill="#FFAFA1"></path>
                    <path d="M617.265,74.3166667 L605.433,73.6666667 C601.952107,73.1014947 598.83038,71.2045371 596.733,68.38 L579.333,43.5933333 C577.822792,41.7013348 575.864743,40.2123677 573.6345,39.26 L562.629,35.62 C561.190816,35.1840492 560.204007,33.8674938 560.193,32.37 L560.193,30.3333333 C567.353491,31.5779831 574.44012,33.212657 581.421,35.23 C585.532514,36.4560666 589.402217,38.3761761 592.8615,40.9066667 C593.077719,40.9066667 593.253,41.0812756 593.253,41.2966667 C595.716398,43.0043146 597.914831,45.062924 599.778,47.4066667 C600.6045,48.23 601.431,49.4433333 602.214,50.2666667 C602.214,50.2666667 611.175,62.4433333 611.175,62.8766667 C613.18103,65.7059026 614.955735,68.6910536 616.482,71.8033333 C616.047,71.5 616.482,72.7133333 617.265,74.3166667 Z" id="Path" fill="#FFAFA1"></path>
                    <path d="M481.023,40.6033333 C482.241,39.78 481.8495,37.3533333 480.1965,37.3533333 L322.77,37.3533333 C307.131535,38.077837 291.578979,40.0778646 276.2685,43.3333333 C275.501199,43.4351974 274.900419,44.041542 274.808191,44.8071676 C274.715962,45.5727933 275.155677,46.3035188 275.877,46.5833333 C284.055,50.6566667 303.195,58.37 334.602,58.37 L394.545,58.37 C409.798755,58.4417452 425.004731,56.6665086 439.8285,53.0833333 L465.45,47.1033333 C470.9948,45.8987068 476.272295,43.6959383 481.023,40.6033333 Z" id="Path" fill="#000000"></path>
                    <polygon id="Path" fill="#FFFFFF" points="386.4105 37.7433333 368.445 33.41 365.4 64.1766667 378.45 58.89"></polygon>
                </g>
            </g>
        </g>
    </g>
</svg>
